Simply-Green-Circles/scalable/mimes/application-7zip.svg

<svg xmlns="http://www.w3.org/2000/svg" width="48" height="48" viewBox="0 0 12.7 12.7"><path d="M1.21.86L.14 3.66h6.04V.86H1.21zm5.18 0v2.8h6.11L11.4.86h-5zM.19 3.89v6.31c0 .64.25 1.18.74 1.64.5.45 1.08.67 1.78.67h7.25c.7 0 1.28-.22 1.78-.67.49-.46.73-1 .73-1.64V3.9h-1.12v6.3c0 .36-.13.66-.4.91a1.4 1.4 0 0 1-.99.38H2.71a1.4 1.4 0 0 1-.99-.38 1.19 1.19 0 0 1-.41-.9V3.88H.19zm1.53 1.4v1.06H2v1.06h.53V6.35h.26V5.29H1.72zm1.32.05v.53h.53v-.53h-.53zm.53.53v.53h.53v-.53h-.53zm.53 0h.53v-.53H4.1v.53zm.53 0v.53h.53v-.53h-.53zm.53 0h.52v-.53h-.52v.53zm.52 0v.53h.53v-.53h-.53zm.53 0h.53v-.53h-.53v.53zm.53 0v.53h.53v-.53h-.53zm.53 0h.53v-.53h-.53v.53zm.53 0v.53h.53v-.53H7.8zm.53 0h.53v-.53h-.53v.53zm.53 0v.53h.53v-.53h-.53zm.53 0h.53v-.53h-.53v.53zm.53 0v.53h.53v-.53h-.53zm.53 0h.53v-.53h-.53v.53zm-8.46-.31h.53v.53h-.53v-.53zM3.47 7.9v.4h.93l-.88 1.95h.47l.86-1.95v-.4H3.47zm3.2 0v.4h.43v-.4h-.42zm1.77.55a.92.92 0 0 0-.08 0 .74.74 0 0 0-.54.24c-.02-.06.06-.23-.05-.2h-.33v2.34h.42v-.75c.4.39 1.14.2 1.34-.3.2-.47.02-1.11-.49-1.28a.92.92 0 0 0-.27-.05zm-1.76.04v1.76h.42V8.49h-.42zm-1.49 0v.38h.69l-.78 1v.38h1.34v-.38h-.83l.77-1v-.38H5.2zm3.16.34c.4-.01.63.47.44.8-.15.34-.68.36-.87.04-.22-.33 0-.85.43-.84z" fill="#2ca02c"/></svg>

<?xml version="1.0" encoding="UTF-8" standalone="no"?>
<svg
   xmlns:dc="http://purl.org/dc/elements/1.1/"
   xmlns:cc="http://creativecommons.org/ns#"
   xmlns:rdf="http://www.w3.org/1999/02/22-rdf-syntax-ns#"
   xmlns:svg="http://www.w3.org/2000/svg"
   xmlns="http://www.w3.org/2000/svg"
   xmlns:sodipodi="http://sodipodi.sourceforge.net/DTD/sodipodi-0.dtd"
   xmlns:inkscape="http://www.inkscape.org/namespaces/inkscape"
   width="48"
   height="48"
   viewBox="0 0 12.7 12.7"
   version="1.1"
   id="svg6"
   sodipodi:docname="application-7zip.svg"
   inkscape:version="0.92.4 (5da689c313, 2019-01-14)">
  <defs
     id="defs10" />
  <sodipodi:namedview
     pagecolor="#ffffff"
     bordercolor="#666666"
     borderopacity="1"
     objecttolerance="10"
     gridtolerance="10"
     guidetolerance="10"
     inkscape:pageopacity="0"
     inkscape:pageshadow="2"
     inkscape:window-width="1087"
     inkscape:window-height="480"
     id="namedview8"
     showgrid="false"
     inkscape:zoom="4.9166667"
     inkscape:cx="2.1355932"
     inkscape:cy="24"
     inkscape:window-x="0"
     inkscape:window-y="25"
     inkscape:window-maximized="0"
     inkscape:current-layer="svg6" />
  <metadata
     id="metadata2">
    <rdf:RDF>
      <cc:Work>
        <dc:format>image/svg+xml</dc:format>
        <dc:type
           rdf:resource="http://purl.org/dc/dcmitype/StillImage" />
        <dc:title></dc:title>
      </cc:Work>
    </rdf:RDF>
  </metadata>
  <path
     d="m 1.21,0.86 -1.07,2.8 h 6.04 v -2.8 z m 5.18,0 v 2.8 h 6.11 l -1.1,-2.8 h -5 z m -6.2,3.03 v 6.31 c 0,0.64 0.25,1.18 0.74000003,1.64 C 1.43,12.29 2.01,12.51 2.71,12.51 H 9.9600003 C 10.66,12.51 11.24,12.29 11.74,11.84 c 0.49,-0.46 0.73,-1 0.73,-1.64 V 3.9 h -1.12 v 6.3 c 0,0.36 -0.13,0.66 -0.4,0.91 A 1.4,1.4 0 0 1 9.9600003,11.49 H 2.71 A 1.4,1.4 0 0 1 1.72,11.11 1.19,1.19 0 0 1 1.31,10.21 V 3.88 H 0.19 Z m 1.53,1.4 V 6.35 H 2 V 7.41 H 2.53 V 6.35 H 2.79 V 5.29 Z M 3.04,5.34 V 5.87 H 3.57 V 5.34 Z M 3.57,5.87 V 6.4 H 4.1 V 5.87 Z m 0.53,0 H 4.63 V 5.34 H 4.1 Z m 0.53,0 V 6.4 H 5.16 V 5.87 Z m 0.53,0 H 5.68 V 5.34 H 5.16 Z m 0.52,0 V 6.4 H 6.21 V 5.87 Z m 0.53,0 H 6.74 V 5.34 H 6.21 Z m 0.53,0 V 6.4 H 7.27 V 5.87 Z m 0.53,0 H 7.8 V 5.34 H 7.27 Z m 0.53,0 V 6.4 H 8.33 V 5.87 Z m 0.53,0 H 8.86 V 5.34 H 8.33 Z m 0.53,0 V 6.4 H 9.39 V 5.87 Z m 0.53,0 H 9.9200003 V 5.34 H 9.39 Z m 0.5300003,0 V 6.4 H 10.45 V 5.87 Z M 10.45,5.87 h 0.53 V 5.34 H 10.45 Z M 1.99,5.56 H 2.52 V 6.09 H 1.99 Z M 3.47,7.9 V 8.3 H 4.4 L 3.52,10.25 H 3.99 L 4.85,8.3 V 7.9 Z m 3.2,0 V 8.3 H 7.1 V 7.9 H 6.68 Z m 1.77,0.55 a 0.92,0.92 0 0 0 -0.08,0 0.74,0.74 0 0 0 -0.54,0.24 C 7.8,8.63 7.88,8.46 7.77,8.49 H 7.44 v 2.34 H 7.86 V 10.08 C 8.26,10.47 9,10.28 9.2,9.78 9.4,9.31 9.22,8.67 8.71,8.5 A 0.92,0.92 0 0 0 8.44,8.45 Z M 6.68,8.49 v 1.76 H 7.1 V 8.49 Z m -1.49,0 v 0.38 h 0.69 l -0.78,1 v 0.38 H 6.44 V 9.87 H 5.61 l 0.77,-1 V 8.49 H 5.2 Z M 8.35,8.83 C 8.75,8.82 8.98,9.3 8.79,9.63 8.64,9.97 8.11,9.99 7.92,9.67 7.7,9.34 7.92,8.82 8.35,8.83 Z"
     id="path4"
     inkscape:connector-curvature="0"
     style="fill:#2ca02c" />
</svg>
